X: 53
T: Fang yang
%%abc-version 2.0
%%abcx-abcm2ps-target-version 5.9.1 (29 Sep 2008)
%%abc-creator hum2abc beta
%%abcx-conversion-date 2013/10/02 07:52:29
%%abc-edited-by Helmut Schaffrath
%%humdrum-veritas 1469232511
%%humdrum-veritas-data 2631049121
%%continueall 1
%%barnumbers 0
L: 1/16
M: 2/4
K: C
D2 D E E2 C2 [I:setbarnb 1]| 
D2 E A,G,4 | 
A,2 A, C C2 G,2 | 
A,2 C E,D,4 | 
G,2> A,2 G,2 G, A, | 
G,2 E2 D2 E2 | 
E2 D C C2 E, G, | 
A,2> C2 G, A, G, E, | 
D,8 |]  



